X: 79
T:Missa Allez regretz I / Sanctus
N: Derived from Jos0701d-Missa_Allez_regretz_I-Sanctus.krn
C: Josquin des Prez
%%abc-version 2.0
%%abcx-abcm2ps-target-version 5.9.1 (29 Sep 2008)
%%abc-creator hum2abc beta
%%abcx-conversion-date 2019/02/12 16:15:42
%%abc-edited-by Jesse Rodin
%%abc-edited-by Jesse Rodin; Victoria Chang 2012/02/25
%%abcx-initial-encoding-date 2012/02/25/
%%humdrum-veritas 1933119103
%%humdrum-veritas-data 2961053641
%%linebreak <none>
%%barnumbers 0
L: 1/4
M: 4/2
Q: 1/2=120
%%staves [1 2 3 4]
V: 1 clef=treble
V: 2 clef=treble-8
V: 3 clef=treble-8
V: 4 clef=bass
K: F
[V:1] z8 | 
[V:2] F6G2 | 
[V:3] z8 | 
[V:4] F,6E,2 | 
[V:1] z8 | 
[V:2] A2c4B2 | 
[V:3] z8 | 
[V:4] F,4D,4 | 
[V:1] C6D2 | 
[V:2] c2G2A2B2 | 
[V:3] z8 | 
[V:4] C,2C,4B,,2 | 
[V:1] E4F4 | 
[V:2] G4A4 | 
[V:3] z8 | 
[V:4] C,2E,2D,4 | 
[V:1] G6FG | 
[V:2] G2B3cde | 
[V:3] z8 | 
[V:4] G,8 | 
[V:1] A8 | 
[V:2] f8 | 
[V:3] F6G2 | 
[V:4] D,6E,2 | 
[V:1] z4G4- | 
[V:2] F4G4- | 
[V:3] A4B4 | 
[V:4] F,4_E,4- | 
[V:1] G2FEF2GA | 
[V:2] G4A4 | 
[V:3] c4d4 | 
[V:4] E,4D,4 | 
[V:1] B8 | 
[V:2] G2d4e2 | 
[V:3] B8 | 
[V:4] G,8 | 
[V:1] A4G2G2- | 
[V:2] f4d4 | 
[V:3] c4B4 | 
[V:4] F,4G,4 | 
[V:1] G2FED2G2- | 
[V:2] c4d2_e2 | 
[V:3] G3AB2c2 | 
[V:4] C,4z2C,2 | 
[V:1] GFF4E2 | 
[V:2] d2B2c4 | 
[V:3] A3G/F/G4 | 
[V:4] D,4C,4 | 
[V:1] F8 | 
[V:2] A3Bc2d2 | 
[V:3] F8- | 
[V:4] D,3C,A,,2B,,2- | 
[V:1] z4A4 | 
[V:2] d2cBA4 | 
[V:3] F8 | 
[V:4] B,,2A,,G,,F,,4 | 
[V:1] A4A4 | 
[V:2] z8 | 
[V:3] z2F4c2- | 
[V:4] z8 | 
[V:1] G4c4 | 
[V:2] z8 | 
[V:3] c2B3AA2 | 
[V:4] z8 | 
[V:1] B2A2BAGF | 
[V:2] z8 | 
[V:3] G2A2D4 | 
[V:4] z8 | 
[V:1] E2E4DC | 
[V:2] z8 | 
[V:3] C3DEFGA | 
[V:4] z8 | 
[V:1] D2F3EE2 | 
[V:2] z8 | 
[V:3] B2A3Gc2- | 
[V:4] z8 | 
[V:1] FEDCB,4 | 
[V:2] z4d4 | 
[V:3] c2BAG4 | 
[V:4] z8 | 
[V:1] A,8 | 
[V:2] c8 | 
[V:3] A8 | 
[V:4] F,8 | 
[V:1] z4A,4 | 
[V:2] f8 | 
[V:3] F8 | 
[V:4] D,4D,4 | 
[V:1] C6DE | 
[V:2] e8 | 
[V:3] G8 | 
[V:4] C,8 | 
[V:1] F6E2 | 
[V:2] d6c2- | 
[V:3] F4z2G2- | 
[V:4] D,4B,,2C,2 | 
[V:1] D4C4 | 
[V:2] c2B2c4 | 
[V:3] GFD2E4 | 
[V:4] G,,4C,4 | 
[V:1] D8 | 
[V:2] A4F4 | 
[V:3] F3GA2B2 | 
[V:4] F,4D,4 | 
[V:1] E6DC | 
[V:2] G8- | 
[V:3] c2c4BA | 
[V:4] C,8 | 
[V:1] D4E2F2 | 
[V:2] G4z2FG | 
[V:3] B4A4 | 
[V:4] z8 | 
[V:1] EDA4G2- | 
[V:2] ABc4_e2 | 
[V:3] z2FGABc2 | 
[V:4] z4z2C,2 | 
[V:1] GFF4E2 | 
[V:2] d2B2c4 | 
[V:3] BAGFG4 | 
[V:4] D,4C,4 | 
[V:1] F3GABA2- | 
[V:2] A4z2F2- | 
[V:3] F4z2c2- | 
[V:4] F,8 | 
[V:1] A2G2E2F2- | 
[V:2] F2G4D2- | 
[V:3] c6d2- | 
[V:4] z2C,4B,,2- | 
[V:1] FEDCD4 | 
[V:2] DEF2G2G2- | 
[V:3] dcc4B2 | 
[V:4] B,,C,A,,2G,,4 | 
[V:1] C4F4 | 
[V:2] GEG2F4 | 
[V:3] c4B4 | 
[V:4] C,4D,4 | 
[V:1] E4z2E2 | 
[V:2] G4z2G2 | 
[V:3] c4z2c2 | 
[V:4] C,4z2C,2 | 
[V:1] D2E4D2 | 
[V:2] F2G2A2F2 | 
[V:3] B2c4B2 | 
[V:4] D,2C,3A,,D,2 | 
[V:1] E8 ||  
[V:2] G8 ||  
[V:3] c8 ||  
[V:4] C,8 ||  
[V:1]  [K:F] [K:clef=treble][M:4/2]A,8 | 
[V:2]  [K:F] [K:clef=treble-8][M:4/2]z8 | 
[V:3]  [K:F] [K:clef=treble-8][M:4/2]c6c2 | 
[V:4]  [K:F] [K:clef=bass][M:4/2]z8 | 
[V:1] D6E2 | 
[V:2] z8 | 
[V:3] B2d2B2AG | 
[V:4] z8 | 
[V:1] F6ED | 
[V:2] z8 | 
[V:3] F2DEFGAB | 
[V:4] z8 | 
[V:1] C4CDEF | 
[V:2] z8 | 
[V:3] c2A4GF | 
[V:4] z8 | 
[V:1] G4F2E2- | 
[V:2] z8 | 
[V:3] E4F2G2 | 
[V:4] z8 | 
[V:1] E2D4C2 | 
[V:2] z8 | 
[V:3] A2B2G2A2 | 
[V:4] z8 | 
[V:1] D4D4 | 
[V:2] z8 | 
[V:3] z2D3EFG | 
[V:4] z8 | 
[V:1] C3B,/A,/G,2F,2- | 
[V:2] z8 | 
[V:3] AFc2B2c2 | 
[V:4] z8 | 
[V:1] F,2F4E2 | 
[V:2] z8 | 
[V:3] A2GFG4 | 
[V:4] z8 | 
[V:1] F4G2A2- | 
[V:2] z8 | 
[V:3] F4z2f2- | 
[V:4] z8 | 
[V:1] A2G4c2- | 
[V:2] z8 | 
[V:3] f2e2c4 | 
[V:4] z8 | 
[V:1] c2B2c2A2- | 
[V:2] z8 | 
[V:3] d4c2F2- | 
[V:4] z8 | 
[V:1] A2GFE4 | 
[V:2] z8 | 
[V:3] F2EDC4 | 
[V:4] z8 | 
[V:1] F4E2F2 | 
[V:2] z8 | 
[V:3] z2F2G2A2 | 
[V:4] z8 | 
[V:1] GFEDC2D2- | 
[V:2] z8 | 
[V:3] B4A2B2- | 
[V:4] z8 | 
[V:1] D2G2F2ED | 
[V:2] z8 | 
[V:3] B2G2AGAB | 
[V:4] z8 | 
[V:1] E4A2G2 | 
[V:2] z8 | 
[V:3] c2C2F2G2 | 
[V:4] z8 | 
[V:1] c3BAGF2 | 
[V:2] z8 | 
[V:3] A3GFED2 | 
[V:4] z8 | 
[V:1] B3GA2F2- | 
[V:2] z8 | 
[V:3] B,CDEFGAG | 
[V:4] z8 | 
[V:1] F2E2A3F | 
[V:2] z8 | 
[V:3] ABc4d2 | 
[V:4] z8 | 
[V:1] BAGFE2G2- | 
[V:2] z8 | 
[V:3] B2c4B2 | 
[V:4] z8 | 
[V:1] G2F4E2 | 
[V:2] z8 | 
[V:3] A2GFG4 | 
[V:4] z8 | 
[V:1] F8 ||  
[V:2] z8 ||  
[V:3] F8 ||  
[V:4] z8 ||  
[V:1]  [K:F] [K:clef=treble][M:2/1]A8- | 
[V:2]  [K:F] [K:clef=treble-8][M:2/1]f8- | 
[V:3]  [K:F] [K:clef=treble-8][M:2/1]z8 | 
[V:4]  [K:F] [K:clef=bass][M:2/1]F,8- | 
[V:1] A8 | 
[V:2] f8- | 
[V:3] c8 | 
[V:4] F,8- | 
[V:1] A6A2 | 
[V:2] f8 | 
[V:3] c4A4 | 
[V:4] F,8 | 
[V:1] B2G4FG | 
[V:2] d8- | 
[V:3] G2B4AG | 
[V:4] G,8 | 
[V:1] A2F4ED | 
[V:2] d4B4 | 
[V:3] F8 | 
[V:4] D,8 | 
[V:1] E4z4 | 
[V:2] c4d4 | 
[V:3] G4B4 | 
[V:4] C,4B,,4 | 
[V:1] A8 | 
[V:2] c8 | 
[V:3] A8 | 
[V:4] F,6F,2 | 
[V:1] B8 | 
[V:2] z2d4cB | 
[V:3] G6AB | 
[V:4] G,2B,4A,G, | 
[V:1] A4G3F | 
[V:2] f4d4 | 
[V:3] c4B2B2- | 
[V:4] F,4z2G,2- | 
[V:1] DEFGA4 | 
[V:2] Bcdef2e2 | 
[V:3] B2AGF2c2 | 
[V:4] G,2F,E,D,2C,2 | 
[V:1] z2F4E2 | 
[V:2] d2B2c4 | 
[V:3] BAGFG4 | 
[V:4] D,4C,4 | 
[V:1] F8- | 
[V:2] A6c2- | 
[V:3] F8- | 
[V:4] C6A,2- | 
[V:1] F8 | 
[V:2] c2A4B2 | 
[V:3] F8 | 
[V:4] A,2F,4D,2 | 
[V:1] z4F4 | 
[V:2] A2A4F2 | 
[V:3] z4F4 | 
[V:4] F,3E,D,4 | 
[V:1] E2F2A2G2 | 
[V:2] G2A2F2G2 | 
[V:3] c8 | 
[V:4] C,2F,4E,2 | 
[V:1] FGAFBAGF | 
[V:2] A2F4ED | 
[V:3] d8 | 
[V:4] D,4B,,4 | 
[V:1] E8 | 
[V:2] G8 | 
[V:3] c6c2 | 
[V:4] C,8 | 
[V:1] z2F4D2 | 
[V:2] z8 | 
[V:3] B2A2F2G2- | 
[V:4] z2D,4B,,2 | 
[V:1] E2F4ED | 
[V:2] z4D4 | 
[V:3] G2A4G2 | 
[V:4] C,2A,,2B,,4 | 
[V:1] C8- | 
[V:2] E6F2- | 
[V:3] A8- | 
[V:4] A,,8- | 
[V:1] C8 | 
[V:2] F2EDC2F2- | 
[V:3] A8 | 
[V:4] A,,8 | 
[V:1] z2c2A2c2- | 
[V:2] F2E2F4 | 
[V:3] z4A4- | 
[V:4] D,2C,2F,4 | 
[V:1] cBA4GF | 
[V:2] c6d2- | 
[V:3] A8 | 
[V:4] z2F,4D,2 | 
[V:1] G4A4 | 
[V:2] d2B2d2c2- | 
[V:3] B4A4 | 
[V:4] G,4D,2F,2 | 
[V:1] z2D6 | 
[V:2] c2A2B4 | 
[V:3] G2F2GFED | 
[V:4] C,2D,2B,,4 | 
[V:1] E8 | 
[V:2] c3BAGA2- | 
[V:3] C8 | 
[V:4] A,,2C6 | 
[V:1] D4CDEF | 
[V:2] A2G2A4 | 
[V:3] z4c4 | 
[V:4] B,4A,4 | 
[V:1] GAB3AF2- | 
[V:2] z8 | 
[V:3] B3AG2d2- | 
[V:4] G,4z2D,2- | 
[V:1] F2A4G2 | 
[V:2] z8 | 
[V:3] d2c3AB2 | 
[V:4] D,2F,4E,2 | 
[V:1] BAGFE3D | 
[V:2] z8 | 
[V:3] F4G4 | 
[V:4] D,4C,4 | 
[V:1] F4z2F2- | 
[V:2] A6B2- | 
[V:3] F4z2F2- | 
[V:4] z2D,4B,,2 | 
[V:1] F2E4F2- | 
[V:2] B2c4F2- | 
[V:3] F2G4A2- | 
[V:4] D,2C,4F,2 | 
[V:1] F2E4D2 | 
[V:2] F2G2A2F2 | 
[V:3] ABc4B2 | 
[V:4] D,2C,2A,,2D,2 | 
[V:1] E4F4 | 
[V:2] G4B4 | 
[V:3] c4d4 | 
[V:4] C,4B,,4 | 
[V:1] E2F4E2 | 
[V:2] G8 | 
[V:3] c8- | 
[V:4] C,8 | 
[V:1] F8 | 
[V:2] F8 | 
[V:3] c8- | 
[V:4] F,8- | 
[V:1] z4A4 | 
[V:2] f6e2 | 
[V:3] c8 | 
[V:4] F,8 | 
[V:1] G2B4AG | 
[V:2] d8- | 
[V:3] B8 | 
[V:4] G,8 | 
[V:1] F8 | 
[V:2] d8 | 
[V:3] A8- | 
[V:4] D,8 | 
[V:1] z2c4BA | 
[V:2] c8 | 
[V:3] A8 | 
[V:4] F,8 | 
[V:1] BAGFE2F2- | 
[V:2] d4c4- | 
[V:3] G4A4 | 
[V:4] z4z2A,2- | 
[V:1] F2A2G4 | 
[V:2] c2d4c2 | 
[V:3] F2D2E4 | 
[V:4] A,2F,2G,4 | 
[V:1] F4z4 | 
[V:2] d2d4c2 | 
[V:3] D3EF2G2 | 
[V:4] A,3G,F,2E,2 | 
[V:1] F4G2A2- | 
[V:2] d4e2c2- | 
[V:3] A3G/F/ECF2 | 
[V:4] D,4z2F,2- | 
[V:1] A2F2G4 | 
[V:2] c2f4e2 | 
[V:3] A2B2G4 | 
[V:4] F,2D,2C,4 | 
[V:1] A4z2A2- | 
[V:2] f4z2c2- | 
[V:3] F4z2f2- | 
[V:4] F,4z2F,2- | 
[V:1] A2G2A4 | 
[V:2] c4A4- | 
[V:3] f2e2c4 | 
[V:4] F,2C,2F,3E, | 
[V:1] F4z2F2- | 
[V:2] A2B2A2GF | 
[V:3] d4c4- | 
[V:4] D,C,B,,2F,4 | 
[V:1] F2E2F4- | 
[V:2] G4F3G | 
[V:3] c8 | 
[V:4] C,4F,3E, | 
[V:1] F8- | 
[V:2] A2B2c4 | 
[V:3] d4c2A2 | 
[V:4] D,C,B,,2F,4 | 
[V:1] F4z2C2- | 
[V:2] d2B2c4 | 
[V:3] BAGFE2F2- | 
[V:4] D,4C,2F,G, | 
[V:1] CDE2F4 | 
[V:2] z4F4 | 
[V:3] F2E2D4 | 
[V:4] A,B,C4B,2 | 
[V:1] E4F2E2 | 
[V:2] G4F2c2- | 
[V:3] C4F2G2 | 
[V:4] C4z2C,2 | 
[V:1] F2A2G2F2 | 
[V:2] c2F2G2A2 | 
[V:3] A3Bc2d2- | 
[V:4] F,4E,2D,2 | 
[V:1] B2A4D2- | 
[V:2] D2E2F2B2 | 
[V:3] d2c2A2B2 | 
[V:4] B,,2C,2D,2B,,2 | 
[V:1] DCF4E2 | 
[V:2] A2B2c4 | 
[V:3] F4G4 | 
[V:4] D,4C,4 | 
[V:1] F8 ||  
[V:2] c8 ||  
[V:3] F8 ||  
[V:4] F,8 ||  
[V:1]  [K:F] [K:clef=treble][M:4/2]z8 | 
[V:2]  [K:F] [K:clef=treble-8][M:4/2]z8 | 
[V:3]  [K:F] [K:clef=treble-8][M:4/2]c6BA | 
[V:4]  [K:F] [K:clef=bass][M:4/2]C,6D,2 | 
[V:1] z8 | 
[V:2] z8 | 
[V:3] G4A4 | 
[V:4] E,4F,4 | 
[V:1] z8 | 
[V:2] z8 | 
[V:3] B6AG | 
[V:4] G,6F,G, | 
[V:1] z8 | 
[V:2] z8 | 
[V:3] F8 | 
[V:4] A,8 | 
[V:1] z8 | 
[V:2] z8 | 
[V:3] G6_E2- | 
[V:4] z4G,4- | 
[V:1] z8 | 
[V:2] z8 | 
[V:3] E2DCD4 | 
[V:4] G,2F,E,F,2G,A, | 
[V:1] z8 | 
[V:2] z8 | 
[V:3] z2B,CDEFG | 
[V:4] B,8 | 
[V:1] z8 | 
[V:2] z8 | 
[V:3] ABc2B2_ed | 
[V:4] A,4G,2G,2- | 
[V:1] z8 | 
[V:2] z8 | 
[V:3] cBAGF2B2- | 
[V:4] G,2F,E,D,2G,2- | 
[V:1] z8 | 
[V:2] z8 | 
[V:3] B2A2G4 | 
[V:4] G,2F,4E,2 | 
[V:1] C6D2 | 
[V:2] z8 | 
[V:3] F8 | 
[V:4] F,4z4 | 
[V:1] E4F4 | 
[V:2] z8 | 
[V:3] z8 | 
[V:4] C4B,2A,2 | 
[V:1] G6FG | 
[V:2] z8 | 
[V:3] z8 | 
[V:4] G,2B,4A,G, | 
[V:1] A8 | 
[V:2] z8 | 
[V:3] z8 | 
[V:4] F,2D,E,F,G,A,2 | 
[V:1] z4G4- | 
[V:2] z8 | 
[V:3] z8 | 
[V:4] F,G,A,B,C2B,2- | 
[V:1] G2FEF2GA | 
[V:2] z8 | 
[V:3] z8 | 
[V:4] B,G,B,CA,4 | 
[V:1] B8 | 
[V:2] z8 | 
[V:3] z8 | 
[V:4] G,8 | 
[V:1] A4G2G2- | 
[V:2] z8 | 
[V:3] F4G2B2- | 
[V:4] z8 | 
[V:1] G2FED2G2- | 
[V:2] z8 | 
[V:3] B2AGB4 | 
[V:4] z8 | 
[V:1] GFF4E2 | 
[V:2] z8 | 
[V:3] F2A2G4 | 
[V:4] z4C,4 | 
[V:1] F8 | 
[V:2] z8 | 
[V:3] F8 | 
[V:4] D,2F,4D,2 | 
[V:1] z8 | 
[V:2] z8 | 
[V:3] z2c2A2d2- | 
[V:4] E,2F,2F,2D,2 | 
[V:1] z8 | 
[V:2] z8 | 
[V:3] d2c4=B2 | 
[V:4] E,4D,4 | 
[V:1] z4z2CD | 
[V:2] z8 | 
[V:3] c8 | 
[V:4] C,8 | 
[V:1] EFGABAGF | 
[V:2] z8 | 
[V:3] z8 | 
[V:4] C4B,3A, | 
[V:1] GFEDE4 | 
[V:2] z8 | 
[V:3] z8 | 
[V:4] B,A,G,F,G,4 | 
[V:1] F8 | 
[V:2] z8 | 
[V:3] F6G2 | 
[V:4] F,8 | 
[V:1] z2F4D2 | 
[V:2] z8 | 
[V:3] A4B4 | 
[V:4] z8 | 
[V:1] E2A4G2 | 
[V:2] z8 | 
[V:3] c6Bc | 
[V:4] z8 | 
[V:1] F2B2A2B2- | 
[V:2] z8 | 
[V:3] d8 | 
[V:4] z2G,2F,2G,2- | 
[V:1] BAGFE4 | 
[V:2] z8 | 
[V:3] z4c4- | 
[V:4] G,F,G,2C,4 | 
[V:1] D8 | 
[V:2] z8 | 
[V:3] c2BAB2cd | 
[V:4] z8 | 
[V:1] C8 | 
[V:2] z8 | 
[V:3] _e8 | 
[V:4] C,4C,D,E,F, | 
[V:1] z8 | 
[V:2] z8 | 
[V:3] d3cBAG2- | 
[V:4] G,F,G,3F,E,D, | 
[V:1] z4F4 | 
[V:2] z8 | 
[V:3] G2c4=B2 | 
[V:4] C,2E,2D,4 | 
[V:1] E6E2 | 
[V:2] z8 | 
[V:3] c8 | 
[V:4] C,4z2C2 | 
[V:1] F3EDCD2- | 
[V:2] z8 | 
[V:3] z8 | 
[V:4] A,2B,3A,G,F, | 
[V:1] D2C2B,4 | 
[V:2] z8 | 
[V:3] z8 | 
[V:4] G,2A,4G,2 | 
[V:1] A,4z4 | 
[V:2] z8 | 
[V:3] z8 | 
[V:4] A,4z4 | 
[V:1] A4A4- | 
[V:2] z8 | 
[V:3] c6c2 | 
[V:4] F,6F,2 | 
[V:1] A2A2G4 | 
[V:2] z8 | 
[V:3] c4B4 | 
[V:4] F,4G,4 | 
[V:1] c4B2A2 | 
[V:2] z8 | 
[V:3] A4z2c2 | 
[V:4] A,2F,2G,2F,2 | 
[V:1] BAGFE4- | 
[V:2] z8 | 
[V:3] B4c3B | 
[V:4] G,F,E,D,C,4- | 
[V:1] E2DCD4 | 
[V:2] z8 | 
[V:3] AGF2BAGF | 
[V:4] C,4z4 | 
[V:1] E2CDEFG2- | 
[V:2] z8 | 
[V:3] E2F4E2 | 
[V:4] z4z2C,2 | 
[V:1] G2F4E2 | 
[V:2] z8 | 
[V:3] D4C4 | 
[V:4] F,4G,4 | 
[V:1] F6E2 | 
[V:2] z8 | 
[V:3] z8 | 
[V:4] F,3G,A,B,C2 | 
[V:1] D2C2B,4 | 
[V:2] z8 | 
[V:3] z8 | 
[V:4] B,2A,4G,2 | 
[V:1] A,2A2G2c2- | 
[V:2] z8 | 
[V:3] c8- | 
[V:4] A,4z4 | 
[V:1] cBAGBAGF | 
[V:2] z8 | 
[V:3] c4d4 | 
[V:4] z8 | 
[V:1] GFEDC2D2- | 
[V:2] z8 | 
[V:3] c3BAGF2 | 
[V:4] z8 | 
[V:1] DCD2C2D2- | 
[V:2] z8 | 
[V:3] BAGFE2F2- | 
[V:4] z8 | 
[V:1] D2E2F3G | 
[V:2] z8 | 
[V:3] F2E2D4 | 
[V:4] z2C4B,2 | 
[V:1] E4C3D | 
[V:2] z8 | 
[V:3] C4z2c2- | 
[V:4] C3B,A,G,F,2 | 
[V:1] E2F2G2A2- | 
[V:2] z8 | 
[V:3] c2d2B2c2 | 
[V:4] E,2D,2G,2F,2 | 
[V:1] AGF4E2 | 
[V:2] z8 | 
[V:3] F2A2G4 | 
[V:4] D,2F,2C,4 | 
[V:1] F8 |]  
[V:2] z8 |]  
[V:3] F8 |]  
[V:4] F,8 |]  



